!!!COM: Bach, Johann Sebastian
!!!OPR: Joh. Seb. Bachs vierstimmige Choralgesänge
!!!XEN: Four-part Chorales
!!!OTL: Chorale 114. In allen meinen Taten
!!!SCT: BWV 367
!!!SCA: Thematisch-systematisches Verzeichnis der musikalischen Werke Johann Sebastian Bach: Bach-Werke-Verzeichnis (Schmieder)
!!!YOR: Bach Gesellschaft Edition xxxix
!!!ENC: Steven Rasmussen
!!!CDT: 1685/3//-1750/7/28/
!!!OCY: Deutschland
!!!YEC: Copyright (c) 1994, 2000 Center for Computer Assisted Research in the Humanities
!!!YEM: Rights to all derivative editions reserved
!!!YEN: United States of America
**kern	**kern	**kern	**kern	**silbe
*I:[BASSO]	*I:[TENORE]	*I:[ALTO]	*I:[SOPRANO]	*I:[SOPRANO]
*clefF4	*clefGv2	*clefG2	*clefG2	*
*k[]	*k[]	*k[]	*k[]	*
*C:	*C:	*C:	*C:	*
*M4/4	*M4/4	*M4/4	*M4/4	*
4C	4c	4e	4g	In
=1	=1	=1	=1	=1
8CL	4c	8eL	4cc	al-
8DJ	.	8fJ	.	.
4E	4c	4g	4cc	-len
4F	4c	4a	4dd	mei-
4G	4B	4g	4dd	-nen
=2	=2	=2	=2	=2
8CL	2c	2g	2ee	Ta-
8D	.	.	.	.
8E	.	.	.	.
8FJ	.	.	.	.
4G;	4B;	4g;	4dd;	-ten
4GG	4B	4g	4dd	lass'
=3	=3	=3	=3	=3
4AA	4c	8gL	4cc	ich
.	.	8f#J	.	.
4BB	4d	4g	4b	den
4C	4e	4g	4a	HÃ¶ch-
4D	4d	4f#	4a	-sten
=4	=4	=4	=4	=4
2G	2d	2g	2b	ra-
4GG;	4d;	4g;	4b;	-ten,
8GL	4B	4d	4g	der
8FJ	.	.	.	.
=5	=5	=5	=5	=5
8EL	4c	4e	4g	Al-
8DJ	.	.	.	.
8CL	8cL	4e	4g	-les
8BBJ	8dJ	.	.	.
8AAL	4e	4a	4cc	kann
8BBJ	.	.	.	.
8CL	4e	4a	4cc	und
8DJ	.	.	.	.
=6	=6	=6	=6	=6
2E;	2e;	2g#;	2b;	hat;
4r	4r	4r	4r	.
8EL	4e	4gn	4b	er
8DJ	.	.	.	.
=7	=7	=7	=7	=7
8CL	8eL	4g	4ee	muss
8DJ	8dJ	.	.	.
8EL	8cL	4g	4ee	zu
8CJ	8BJ	.	.	.
8FL	8AL	4f	4cc	al-
8GJ	8BJ	.	.	.
8AL	8cL	4f	4cc	-len
8FJ	8AJ	.	.	.
=8	=8	=8	=8	=8
8DL	4A	8f#L	2dd	Din-
8E	.	8g	.	.
8F#	4d	8a	.	.
8DJ	.	8f#J	.	.
4G;	4d;	4g;	4b;	-gen,
4GG	4d	4g	4b	soll's
=9	=9	=9	=9	=9
8CL	4e	4g	4cc	an-
8DJ	.	.	.	.
8EL	4e	4g	4cc	-ders
8CJ	.	.	.	.
8DL	4e	4f#	4a	wohl
8EJ	.	.	.	.
8F#L	4d	4f#	4a	ge-
8DJ	.	.	.	.
=10	=10	=10	=10	=10
8BBL	8d#L	4f#	2b	-lin-
8C#	8e	.	.	.
8D#	8f#	4B	.	.
8BBJ	8d#J	.	.	.
4E;	4e;	4B;	4g;	-gen,
8GL	4dn	4B	4g	selbst
8FJ	.	.	.	.
=11	=11	=11	=11	=11
8EL	4G	4c	4cc	ge-
8FJ	.	.	.	.
8EL	4B	4f	4dd	-ben
8DJ	.	.	.	.
4C	4c	8eL	4ee	Rat
.	.	8fJ	.	.
4G	4B	8gL	4dd	und
.	.	8fJ	.	.
=12	=12	=12	=12	=12
2.C;	2.G;	2.e;	2.cc;	Tat.
==|!	==|!	==|!	==|!	==|!
*-	*-	*-	*-	*-
!!!RWG: Key is interpreted using the Humdrum key tool.
!!!URL-pdf: https://s9.imslp.org/files/imglnks/usimg/7/7a/IMSLP04155-Bach_-_BGA_253-438.pdf#page=62 	Bach-Gesellschaft Ausgabe, Band 39 (pp.175-276) Leipzig: Breitkopf und Härtel, 1892. Plate B.W. XXXIX.
!!!END: 1994/07/13
!!!EMD: Converted from MuseData to Humdrum Dec 19, 2000, by Andreas Kornstaedt using muse2kern.
!!!EED: Craig Stuart Sapp
!!!EEV: 2024/03/31
!!!filter-keyboard: satb2gs
!!!title: @{OTL} (@{SCT})
